X: 12
T: Paddy Fahey's
C: Paddy Fahey
Z: JACKB
S: https://thesession.org/tunes/492#setting47373
R: reel
M: 4/4
L: 1/8
K: Dmaj
|:FD D2 FDGE|FDFA GE E2|FD D2 FGAB|cdec dBAG|
FD D2 FDGE|FDFA GE E2|FD D2 FGAd|cdec d3e:|
|:fdec Ad d2|cAGE EFGE|fdec dcAG|ABce d3e|
fd d2 Ad d2|cAGE EFGE|FD D2 FGAd|1 (3Bcd ec d3e:|2 (3Bcd ec d2 AG||

%-------------------- TUNE SEPARATOR --------------------%

